src/assets/outline/Scanning.svg

<?xml version="1.0" encoding="UTF-8"?>
<svg width="24" height="24" viewBox="0 0 24 24" xmlns="http://www.w3.org/2000/svg">
 <path d="m2 9.75c-0.41 0-0.75-0.34-0.75-0.75v-2.5c0-2.9 2.36-5.25 5.25-5.25h2.5c0.41 0 0.75 0.34 0.75 0.75s-0.34 0.75-0.75 0.75h-2.5c-2.07 0-3.75 1.68-3.75 3.75v2.5c0 0.41-0.34 0.75-0.75 0.75z"/>
 <path d="m22 9.75c-0.41 0-0.75-0.34-0.75-0.75v-2.5c0-2.07-1.68-3.75-3.75-3.75h-2.5c-0.41 0-0.75-0.34-0.75-0.75s0.34-0.75 0.75-0.75h2.5c2.89 0 5.25 2.35 5.25 5.25v2.5c0 0.41-0.34 0.75-0.75 0.75z"/>
 <path d="m17.5 22.75h-1.5c-0.41 0-0.75-0.34-0.75-0.75s0.34-0.75 0.75-0.75h1.5c2.07 0 3.75-1.68 3.75-3.75v-1.5c0-0.41 0.34-0.75 0.75-0.75s0.75 0.34 0.75 0.75v1.5c0 2.9-2.36 5.25-5.25 5.25z"/>
 <path d="m9 22.75h-2.5c-2.89 0-5.25-2.35-5.25-5.25v-2.5c0-0.41 0.34-0.75 0.75-0.75s0.75 0.34 0.75 0.75v2.5c0 2.07 1.68 3.75 3.75 3.75h2.5c0.41 0 0.75 0.34 0.75 0.75s-0.34 0.75-0.75 0.75z"/>
 <path d="m8.5 11.75c-1.79 0-3.25-1.46-3.25-3.25s1.46-3.25 3.25-3.25 3.25 1.46 3.25 3.25-1.46 3.25-3.25 3.25zm0-5c-0.96 0-1.75 0.79-1.75 1.75s0.79 1.75 1.75 1.75 1.75-0.79 1.75-1.75-0.79-1.75-1.75-1.75z"/>
 <path d="m7.5 18.75c-1.24 0-2.25-1.01-2.25-2.25s1.01-2.25 2.25-2.25 2.25 1.01 2.25 2.25-1.01 2.25-2.25 2.25zm0-3c-0.41 0-0.75 0.34-0.75 0.75s0.34 0.75 0.75 0.75 0.75-0.34 0.75-0.75-0.34-0.75-0.75-0.75z"/>
 <path d="m16.5 9.75c-1.24 0-2.25-1.01-2.25-2.25s1.01-2.25 2.25-2.25 2.25 1.01 2.25 2.25-1.01 2.25-2.25 2.25zm0-3c-0.41 0-0.75 0.34-0.75 0.75s0.34 0.75 0.75 0.75 0.75-0.34 0.75-0.75-0.34-0.75-0.75-0.75z"/>
 <path d="m15.5 18.75c-1.79 0-3.25-1.46-3.25-3.25s1.46-3.25 3.25-3.25 3.25 1.46 3.25 3.25-1.46 3.25-3.25 3.25zm0-5c-0.96 0-1.75 0.79-1.75 1.75s0.79 1.75 1.75 1.75 1.75-0.79 1.75-1.75-0.79-1.75-1.75-1.75z"/>
</svg>

<svg width="24" height="24" viewBox="0 0 24 24"  xmlns="http://www.w3.org/2000/svg">
<path d="M2 9.75C1.59 9.75 1.25 9.41 1.25 9V6.5C1.25 3.6 3.61 1.25 6.5 1.25H9C9.41 1.25 9.75 1.59 9.75 2C9.75 2.41 9.41 2.75 9 2.75H6.5C4.43 2.75 2.75 4.43 2.75 6.5V9C2.75 9.41 2.41 9.75 2 9.75Z" />
<path d="M22 9.75C21.59 9.75 21.25 9.41 21.25 9V6.5C21.25 4.43 19.57 2.75 17.5 2.75H15C14.59 2.75 14.25 2.41 14.25 2C14.25 1.59 14.59 1.25 15 1.25H17.5C20.39 1.25 22.75 3.6 22.75 6.5V9C22.75 9.41 22.41 9.75 22 9.75Z" />
<path d="M17.5 22.75H16C15.59 22.75 15.25 22.41 15.25 22C15.25 21.59 15.59 21.25 16 21.25H17.5C19.57 21.25 21.25 19.57 21.25 17.5V16C21.25 15.59 21.59 15.25 22 15.25C22.41 15.25 22.75 15.59 22.75 16V17.5C22.75 20.4 20.39 22.75 17.5 22.75Z" />
<path d="M9 22.75H6.5C3.61 22.75 1.25 20.4 1.25 17.5V15C1.25 14.59 1.59 14.25 2 14.25C2.41 14.25 2.75 14.59 2.75 15V17.5C2.75 19.57 4.43 21.25 6.5 21.25H9C9.41 21.25 9.75 21.59 9.75 22C9.75 22.41 9.41 22.75 9 22.75Z" />
<path d="M8.5 11.75C6.71 11.75 5.25 10.29 5.25 8.5C5.25 6.71 6.71 5.25 8.5 5.25C10.29 5.25 11.75 6.71 11.75 8.5C11.75 10.29 10.29 11.75 8.5 11.75ZM8.5 6.75C7.54 6.75 6.75 7.54 6.75 8.5C6.75 9.46 7.54 10.25 8.5 10.25C9.46 10.25 10.25 9.46 10.25 8.5C10.25 7.54 9.46 6.75 8.5 6.75Z" />
<path d="M7.5 18.75C6.26 18.75 5.25 17.74 5.25 16.5C5.25 15.26 6.26 14.25 7.5 14.25C8.74 14.25 9.75 15.26 9.75 16.5C9.75 17.74 8.74 18.75 7.5 18.75ZM7.5 15.75C7.09 15.75 6.75 16.09 6.75 16.5C6.75 16.91 7.09 17.25 7.5 17.25C7.91 17.25 8.25 16.91 8.25 16.5C8.25 16.09 7.91 15.75 7.5 15.75Z" />
<path d="M16.5 9.75C15.26 9.75 14.25 8.74 14.25 7.5C14.25 6.26 15.26 5.25 16.5 5.25C17.74 5.25 18.75 6.26 18.75 7.5C18.75 8.74 17.74 9.75 16.5 9.75ZM16.5 6.75C16.09 6.75 15.75 7.09 15.75 7.5C15.75 7.91 16.09 8.25 16.5 8.25C16.91 8.25 17.25 7.91 17.25 7.5C17.25 7.09 16.91 6.75 16.5 6.75Z" />
<path d="M15.5 18.75C13.71 18.75 12.25 17.29 12.25 15.5C12.25 13.71 13.71 12.25 15.5 12.25C17.29 12.25 18.75 13.71 18.75 15.5C18.75 17.29 17.29 18.75 15.5 18.75ZM15.5 13.75C14.54 13.75 13.75 14.54 13.75 15.5C13.75 16.46 14.54 17.25 15.5 17.25C16.46 17.25 17.25 16.46 17.25 15.5C17.25 14.54 16.46 13.75 15.5 13.75Z" />
</svg>
